X:1
T:I Shall Be Glad when Jesus Comes
T:I Shall Be Glad when Jesus Comes
T:Peter Philip Bilhorn
T:Robert W. Whitaker, 1896
T:Public Domain Courtesy of the Cyber Hymnal™
C:Peter Philip Bilhorn
Z:Public Domain
Z:Courtesy of the Cyber Hymnal™
%%score ( 1 2 ) ( 3 4 )
L:1/8
Q:1/4=100
M:6/8
K:Ab
V:1 treble 
V:2 treble 
V:3 bass 
V:4 bass 
V:1
 [CA][CA][CA] [CA]2 [DB] | [Ec]2 [Ec] [Ec]2 [CA] | [DB]>[DB][DB] ([DB][CA])[DB] | %3
w: 1.~I shall be glad when|Je- sus comes, Come|wh- en or how * He|
w: 2.~I shall be glad to|know the end Of|self- ish and sor- * did|
w: 3.~I shall be glad when|Christ hath wrought His|glor- i- ous will * in|
w: 4.~Will you be glad when|Je- sus comes? Oh,|sin- ner, what can * you|
 [Ec]3- [Ec]2 [Ec] | [Ae]2 [Ae] [Ae]2 [Ac] | [FB]2 [FB] !fermata![Fd]2 [FB] | %6
w: may, * Glad|when in ma- jes-|ty He comes Who|
w: might, * Glad|when in ma- jes-|ty He comes Who|
w: me, * When|to the like- ness|of His thought I|
w: say? * Are|you pre- pared to|wel- come Him And|
 [EA]2 [Ee] [Ac]2 [GB] | A3- A2 z ||"^Refrain" [Ae][Ae][Ae] [Ae]2 [Ac] | [FA]2 [DF] [FA]3 | %10
w: shall set all things|right. *|||
w: shall set all things|right. *|I shall be glad when|Je- sus comes,|
w: shall trans- fig- ured|be. *|||
w: dwell with Christ for|aye? *|||
 E[EA][Ec] [Ee]2 [Ae] | [GB]3- [GB]2 z | [Ee][Ee][Ee] [Ee]2 [Ac] | [FA]2 [DF] [FA]2 [Fd] | %14
w: ||||
w: Je- sus who died for|me; *|Oh, to be- hold Him|on His throne, And|
w: ||||
w: ||||
 [Ec]2 [Ee] [Ac]2 [GB] | [EA]6 |] %16
w: ||
w: all His glo- ry|see.|
w: ||
w: ||
V:2
 x6 | x6 | x6 | x6 | x6 | x6 | x6 | A3- A2 x || x6 | x6 | E x5 | x6 | x6 | x6 | x6 | x6 |] %16
V:3
 [A,,E,][A,,E,][A,,E,] [A,,E,]2 [A,,E,] | [A,,A,]2 [A,,A,] [A,,A,]2 [A,,A,] | %2
w: ~ ~ ~ ~ ~|~ ~ ~ ~|
 [E,G,]>[E,G,][E,G,] ([E,G,][F,A,])[E,G,] | [A,,A,]3- [A,,A,]2 A, | [A,C]2 [A,C] [A,C]2 [A,E] | %5
w: ~ ~ ~ ~ * ~|~ * ~|~ ~ ~ ~|
 [D,D]2 [D,D] !fermata![D,B,]2 [D,D] | [E,C]2 [E,C] [E,E]2 [E,D] | [A,,A,C]3- [A,,A,C]2 z || %8
w: ~ ~ ~ ~|~ ~ ~ ~|~ *|
 [A,C][A,C][A,C] [A,C]2 [A,E] | [D,D]2 [D,A,] [D,D]3 | [A,C][A,C]A, [A,C]2 [C,E] | %11
w: (Last)~Will you be glad when|Je- sus comes,|Je- sus of Cal- va-|
 [E,E]3- [E,E]2 z | [A,C][A,C][A,C] [A,C]2 [A,E] | [D,D]2 [D,A,] [D,D]2 [D,A,] | %14
w: ry? *|Would you be- hold Him|on His throne, And|
 [E,A,]2 [E,C] [E,E]2 [E,D] | [A,,C]6 |] %16
w: all His glor- y|see?|
V:4
 x6 | x6 | x6 | x5 A, | x6 | x6 | x6 | x6 || x6 | x6 | x2 A, x3 | x6 | x6 | x6 | x6 | x6 |] %16

